X:157
T:Trip to Coventry, or Peeping Tom
M:2/4
L:1/8
B:Thompson's Compleat Collection of 200 Favourite Country Dances, vol. 1 (London, 1757)
Z:Transcribed and edited by Flynn Titford-Mock, 2007
Z:abc's:AK/Fiddler's Companion
K:G
G(B/c/d)B|GBdg|G(B/c/d)B|ABcA|G(B/c/d)B|GBdg|fgaA|d2 D2:|
|:(c/B/c/d/) ca|BcdB|A>BAc|BGAD|(c/B/c/d/) ca|BcdB|Ag (f/g/a/f/)|g2 g2:|

